X:639
T:Miss Henny MacKenzie
R:Reel
B:The Athole Collection
M:C|
L:1/8
K:A Minor
e|A/A/A ^cA dBcA|Bggd BGGB|A/A/A ^ca dBcA|Baae ^cAA:|
^g|ae^ca eaca|Bggd BGGg|ae^ca eaca|Baae ^cAA^g|ae^ca eaca|
Bggd BGGg|a^fge fde^c|^faae ^cAA||

